static/assets/img/icons/theme/text/redo.svg

<svg height="24" viewBox="0 0 24 24" width="24" xmlns="http://www.w3.org/2000/svg"><g fill="none" fill-rule="evenodd"><path d="m0 0h24v24h-24z" opacity="0"/><path d="m21.4451171 17.7910156c0-.8203125.1757813-4.0576172-2.3779297-6.6259765-1.71875-1.72851566-4.2910156-2.02832035-7.3671875-2.1650391v-4.30692452c0-.41421357-.3357864-.75-.75-.75-.1863102 0-.3659509.06934487-.5039373.19452978l-7.14006582 6.47765734c-.30677773.2783169-.32984978.7526298-.05153288 1.0594076.01460809.0161019.02990941.031561.04586062.0463335l7.14006578 6.6124633c.3039063.2814496.7784309.263245 1.0598805-.0406613.1283982-.1386429.1997291-.3206441.1997291-.5096096v-4.2831961c1.953125.0537109 3.3443704.1779456 4.6083985.5800781 1.8200288.5790163 3.2265763 2.2217674 4.2196427 4.9282533l-.0000164.000006c.1083656.2953375.3895249.4916626.7041157.4916626h.2178595c0-.4931641-.0048828-1.2744141-.0048828-1.7089844z" fill="#000" fill-rule="nonzero" transform="matrix(-1 0 0 1 24.509928 0)"/></g></svg>

<svg width="24px" height="24px" viewBox="0 0 24 24" version="1.1" xmlns="http://www.w3.org/2000/svg" xmlns:xlink="http://www.w3.org/1999/xlink">
    <title>Icon For Redo</title>
    <g stroke="none" stroke-width="1" fill="none" fill-rule="evenodd">
        <rect opacity="0" x="0" y="0" width="24" height="24"></rect>
        <path d="M21.4451171,17.7910156 C21.4451171,16.9707031 21.6208984,13.7333984 19.0671874,11.1650391 C17.3484374,9.43652344 14.7761718,9.13671875 11.6999999,9 L11.6999999,4.69307548 C11.6999999,4.27886191 11.3642135,3.94307548 10.9499999,3.94307548 C10.7636897,3.94307548 10.584049,4.01242035 10.4460626,4.13760526 L3.30599678,10.6152626 C2.99921905,10.8935795 2.976147,11.3678924 3.2544639,11.6746702 C3.26907199,11.6907721 3.28437331,11.7062312 3.30032452,11.7210037 L10.4403903,18.333467 C10.7442966,18.6149166 11.2188212,18.596712 11.5002708,18.2928057 C11.628669,18.1541628 11.6999999,17.9721616 11.6999999,17.7831961 L11.6999999,13.5 C13.6531249,13.5537109 15.0443703,13.6779456 16.3083984,14.0800781 C18.1284272,14.6590944 19.5349747,16.3018455 20.5280411,19.0083314 L20.5280247,19.0083374 C20.6363903,19.3036749 20.9175496,19.5 21.2321404,19.5 L21.4499999,19.5 C21.4499999,19.0068359 21.4451171,18.2255859 21.4451171,17.7910156 Z" fill="#000000" fill-rule="nonzero" transform="translate(12.254964, 11.721538) scale(-1, 1) translate(-12.254964, -11.721538) "></path>
    </g>
</svg>
